app/Resources/icons/markdown.svg

<svg xmlns="http://www.w3.org/2000/svg" viewBox="0 0 24 24"><path d="M3 3H21C21.5523 3 22 3.44772 22 4V20C22 20.5523 21.5523 21 21 21H3C2.44772 21 2 20.5523 2 20V4C2 3.44772 2.44772 3 3 3ZM7 15.5V11.5L9 13.5L11 11.5V15.5H13V8.5H11L9 10.5L7 8.5H5V15.5H7ZM18 12.5V8.5H16V12.5H14L17 15.5L20 12.5H18Z"></path></svg>

<svg xmlns="http://www.w3.org/2000/svg" viewBox="0 0 24 24">
    <g>
        <path fill="none" d="M0 0h24v24H0z"/>
        <path d="M3 3h18a1 1 0 0 1 1 1v16a1 1 0 0 1-1 1H3a1 1 0 0 1-1-1V4a1 1 0 0 1 1-1zm4 12.5v-4l2 2 2-2v4h2v-7h-2l-2 2-2-2H5v7h2zm11-3v-4h-2v4h-2l3 3 3-3h-2z"/>
    </g>
</svg>
